X:131
T:Constant Billy - Adderbury
M:4/4
L:1/8
K:G
D | G2 d BGB | c2 A F2 D | BAG E2 D |
[1 DEF G2 :|2 DEF G3 ||
Bcd e3 | ABc d3 | Bcd e3 | ABc def |
g2 d BGB | c2 A F2 D | BAG E2 D | DEF G3 ||
